X:77
T:Grumbling old men and women
R:Reel
O:Canada
M:4/4
K:ADor
AB|\
cA AA cA eA|BG dG BG GG|cA AA cA eA|BG dG A2::
^cd|\
efed ^cdef|gfed ^cAcd|efed ^cAcd|eaa^g a2 ef|
gfed ^cdef|gedc B2G2|c2 (3BcB AGED|EAAG A4:|
